apps/site/public/icons/companies/postgres.svg

<svg width="48" height="48" viewBox="0 0 48 48" fill="none" xmlns="http://www.w3.org/2000/svg">
<g clip-path="url(#clip0_4437_8738)">
<path d="M46.3741 28.6117C46.1032 27.7894 45.394 27.2167 44.4765 27.0792C44.044 27.0144 43.5486 27.0421 42.9625 27.1633C41.9408 27.3746 41.1828 27.4551 40.6296 27.4707C42.7175 23.9357 44.4156 19.9045 45.393 16.1099C46.9735 9.97417 46.129 7.17896 45.1419 5.91452C42.5299 2.56809 38.7192 0.770214 34.1214 0.715103C31.669 0.685089 29.5159 1.17064 28.3927 1.51971C27.347 1.33482 26.2225 1.2315 25.0426 1.21236C22.8313 1.17702 20.8771 1.66037 19.2075 2.65384C18.2829 2.34054 16.7995 1.8987 15.0862 1.61665C11.0566 0.953327 7.80908 1.47025 5.43364 3.15288C2.55717 5.19023 1.22364 8.72993 1.4703 13.6738C1.54852 15.2434 2.42429 20.0191 3.80308 24.5484C4.59553 27.1516 5.44052 29.3135 6.31463 30.9744C7.55419 33.3296 8.88051 34.7166 10.3695 35.2146C11.2042 35.4935 12.7206 35.6887 14.3156 34.357C14.5177 34.6022 14.7873 34.8463 15.1453 35.0727C15.5999 35.3602 16.1558 35.5951 16.7108 35.7344C18.7115 36.2359 20.5856 36.1104 22.1843 35.4075C22.1941 35.6926 22.2017 35.965 22.2082 36.2002C22.2188 36.5818 22.2292 36.9559 22.2431 37.3057C22.3379 39.6713 22.4984 41.5108 22.974 42.7977C23.0001 42.8687 23.0352 42.9764 23.0724 43.0908C23.3095 43.8192 23.7064 45.0385 24.7157 45.9937C25.761 46.9828 27.0253 47.2864 28.1832 47.2862C28.7639 47.2862 29.3179 47.2098 29.8039 47.1055C31.5364 46.7332 33.5038 46.166 34.927 44.1341C36.2725 42.2132 36.9267 39.3199 37.045 34.761C37.0605 34.6322 37.0746 34.5091 37.0882 34.3918C37.0974 34.3126 37.1067 34.2317 37.1163 34.1509L37.4333 34.1788L37.515 34.1844C39.2795 34.265 41.437 33.8898 42.7619 33.2727C43.8089 32.7855 47.1639 31.0096 46.3741 28.6117Z" fill="#2D3748"/>
<path d="M43.3572 29.0778C38.1109 30.1629 37.7503 28.382 37.7503 28.382C43.2895 20.1404 45.6052 9.67918 43.6068 7.11883C38.1553 0.134717 28.7184 3.43776 28.561 3.52351L28.5102 3.53261C27.4738 3.31686 26.3137 3.18834 25.0101 3.16701C22.6362 3.12799 20.8355 3.79101 19.4691 4.82999C19.4691 4.82999 2.63465 -2.12382 3.4176 13.5757C3.58416 16.9157 8.19183 38.8472 13.6877 32.2229C15.6964 29.8005 17.6372 27.7525 17.6372 27.7525C18.6013 28.3945 19.7553 28.7221 20.9651 28.6045L21.0592 28.5244C21.0299 28.8251 21.0433 29.1194 21.0967 29.4675C19.6809 31.0538 20.097 31.3322 17.2667 31.9164C14.4029 32.5081 16.0852 33.5617 17.1837 33.8371C18.5153 34.1711 21.5962 34.6441 23.6778 31.7222L23.5947 32.0555C24.1495 32.501 24.539 34.9535 24.4738 37.1766C24.4084 39.3997 24.3649 40.926 24.802 42.1182C25.239 43.3103 25.6748 45.9927 29.3953 45.1933C32.5043 44.5253 34.1153 42.7941 34.3394 39.9065C34.4985 37.8536 34.8584 38.1571 34.8813 36.3217L35.1699 35.4527C35.5029 32.6698 35.2229 31.772 37.1382 32.1896L37.6036 32.2306C39.0134 32.2949 40.8586 32.0033 41.9414 31.4985C44.2732 30.4135 45.6564 28.6019 43.3572 29.0778Z" fill="#417BA2"/>
<path d="M20.453 15.0692C19.9805 15.0033 19.5526 15.0643 19.3362 15.2286C19.2143 15.321 19.1766 15.4282 19.1666 15.502C19.1394 15.6973 19.2758 15.9133 19.3596 16.0247C19.5969 16.3399 19.9436 16.5568 20.2867 16.6045C20.3365 16.6113 20.3859 16.6147 20.4351 16.6147C21.0073 16.6147 21.5274 16.168 21.5732 15.8383C21.6305 15.4253 21.0327 15.1501 20.453 15.0692Z" fill="white"/>
<path d="M36.1091 15.0832C36.0642 14.7595 35.4895 14.6672 34.9443 14.7432C34.4001 14.8193 33.8721 15.0656 33.9162 15.3899C33.9516 15.6423 34.4057 16.073 34.9436 16.0728C34.989 16.0728 35.0348 16.0699 35.0809 16.0634C35.4399 16.0135 35.7033 15.785 35.8284 15.6532C36.0191 15.4525 36.1292 15.2286 36.1091 15.0832Z" fill="white"/>
<path d="M45.0987 28.9538C44.8987 28.3473 44.2549 28.152 43.1852 28.3736C40.0089 29.0309 38.8715 28.5755 38.4979 28.2997C40.9667 24.5285 42.9977 19.9702 44.0933 15.717C44.6125 13.7023 44.8992 11.8314 44.9225 10.3064C44.9484 8.63236 44.6641 7.40244 44.0778 6.65105C41.7135 3.62191 38.2437 1.99711 34.0433 1.95245C31.1558 1.91993 28.7161 2.66096 28.2431 2.86927C27.2471 2.62091 26.1613 2.46843 24.9793 2.44898C22.8115 2.41385 20.9378 2.93421 19.3864 3.99482C18.7125 3.74342 16.971 3.14399 14.8414 2.80005C11.1594 2.20552 8.23357 2.65594 6.14557 4.13914C3.65416 5.90899 2.50398 9.07263 2.72686 13.542C2.80185 15.0458 3.65624 19.6716 5.00479 24.1016C6.77979 29.9322 8.70916 33.233 10.7394 33.912C10.977 33.9915 11.2511 34.047 11.5531 34.047C12.2937 34.047 13.2016 33.7123 14.1463 32.5736C15.7154 30.6807 17.1804 29.0946 17.7205 28.5183C18.5187 28.9479 19.3952 29.1878 20.292 29.2118C20.2936 29.2354 20.296 29.2588 20.298 29.2822C20.1181 29.4962 19.9706 29.6838 19.8448 29.8439C19.2235 30.6346 19.0943 30.7992 17.0943 31.2122C16.5254 31.3298 15.0143 31.6422 14.9922 32.7042C14.9681 33.8644 16.7782 34.3517 16.9845 34.4033C17.7032 34.5838 18.3955 34.6727 19.0558 34.6727C20.6617 34.6727 22.0749 34.1435 23.2043 33.1195C23.1695 37.256 23.3415 41.3321 23.8368 42.5742C24.2424 43.5908 25.2335 46.0754 28.3642 46.0753C28.8234 46.0753 29.3291 46.0217 29.8854 45.9022C33.1526 45.1997 34.5713 43.7519 35.1201 40.5598C35.4138 38.8538 35.918 34.78 36.1549 32.5949C36.6551 32.7513 37.2993 32.8229 37.9955 32.8228C39.4479 32.8228 41.1235 32.5135 42.1743 32.0243C43.3547 31.4746 45.4851 30.1256 45.0987 28.9538ZM37.3182 14.1877C37.3073 14.8328 37.2188 15.4184 37.1249 16.0298C37.0239 16.6872 36.9194 17.367 36.8932 18.1922C36.8672 18.9953 36.9673 19.8302 37.0641 20.6375C37.2596 22.2683 37.4601 23.9472 36.6835 25.6039C36.5629 25.3891 36.4464 25.1546 36.3396 24.8948C36.2431 24.6604 36.0335 24.2836 35.7435 23.762C34.6147 21.7321 31.9711 16.9788 33.3245 15.0391C33.7275 14.4616 34.7503 13.8682 37.3182 14.1877ZM34.2057 3.25882C37.9691 3.34217 40.9461 4.75384 43.0539 7.45441C44.6704 9.52585 42.8903 18.9513 37.7369 27.0826C37.686 27.0178 37.6342 26.9523 37.5806 26.8852C37.5592 26.8583 37.5374 26.8311 37.5154 26.8034C38.8471 24.5982 38.5866 22.4165 38.3549 20.4819C38.2597 19.6882 38.1698 18.9384 38.1926 18.2341C38.2163 17.4875 38.3147 16.8474 38.4099 16.2283C38.5271 15.4652 38.646 14.6759 38.6131 13.7453C38.6377 13.6477 38.6476 13.5324 38.6348 13.3955C38.5509 12.503 37.5348 9.83248 35.4637 7.41499C34.331 6.09294 32.6789 4.61329 30.4232 3.61532C31.3933 3.4137 32.7202 3.22566 34.2057 3.25882ZM13.1466 31.7401C12.1059 32.9948 11.3871 32.7544 11.1507 32.6755C9.61058 32.1603 7.82369 28.8966 6.2482 23.7211C4.88495 19.2428 4.08823 14.7396 4.02524 13.4769C3.82614 9.4833 4.7916 6.7 6.89493 5.20435C10.3179 2.77035 15.9457 4.22719 18.2071 4.96614C18.1745 4.99824 18.1407 5.02835 18.1085 5.06098C14.3978 8.81871 14.4858 15.2389 14.4949 15.6313C14.4945 15.7826 14.5072 15.997 14.5246 16.2919C14.5884 17.3716 14.7072 19.3814 14.3898 21.6575C14.0948 23.7724 14.745 25.8424 16.1734 27.3368C16.3213 27.4915 16.4756 27.6368 16.6351 27.7734C15.9992 28.4562 14.6174 29.966 13.1466 31.7401ZM17.112 26.4349C15.9607 25.2304 15.4379 23.555 15.6774 21.8379C16.0126 19.4336 15.8888 17.3396 15.8223 16.2147C15.813 16.0574 15.8048 15.9195 15.7999 15.8106C16.342 15.3287 18.8543 13.9789 20.6457 14.3905C21.4633 14.5784 21.9614 15.1365 22.1685 16.0967C23.2405 21.0675 22.3105 23.1393 21.5632 24.8042C21.4092 25.1472 21.2637 25.4715 21.1394 25.8069L21.043 26.0661C20.7992 26.7218 20.5724 27.3312 20.4318 27.91C19.2079 27.9063 18.0173 27.3821 17.112 26.4349ZM17.2999 33.1387C16.9426 33.0492 16.6211 32.8937 16.4325 32.7647C16.5901 32.6905 16.8704 32.5893 17.3565 32.4891C19.7093 32.0032 20.0726 31.6605 20.8661 30.6503C21.0481 30.4188 21.2542 30.1562 21.5398 29.8365C21.5396 29.8366 21.5399 29.8362 21.5398 29.8365C21.9652 29.3589 22.16 29.4394 22.513 29.5861C22.799 29.7049 23.0774 30.0642 23.1903 30.4597C23.2437 30.6465 23.3038 31.0011 23.1074 31.2769C21.4498 33.6039 19.0346 33.574 17.2999 33.1387ZM29.6128 44.6276C26.7346 45.246 25.7156 43.7734 25.0439 42.09C24.6105 41.0032 24.3976 36.1023 24.5486 30.6905C24.5507 30.6184 24.5405 30.5489 24.5205 30.4835C24.5034 30.3573 24.4769 30.2296 24.4402 30.101C24.2153 29.3137 23.6677 28.655 23.0106 28.3819C22.7496 28.2734 22.2704 28.0744 21.6945 28.2221C21.8173 27.7148 22.0304 27.142 22.2612 26.5217L22.358 26.2607C22.4671 25.9664 22.6038 25.6617 22.7486 25.3392C23.5306 23.5972 24.6016 21.2112 23.4393 15.8211C23.0039 13.8023 21.5499 12.8164 19.3459 13.0454C18.0244 13.1825 16.8157 13.7171 16.2127 14.0236C16.0831 14.0895 15.9645 14.153 15.8537 14.2151C16.0219 12.1808 16.6578 8.37939 19.0362 5.97424C20.5336 4.45998 22.528 3.71216 24.9577 3.75241C29.7455 3.83106 32.8157 6.29466 34.5483 8.3476C36.0412 10.1167 36.8499 11.8987 37.1725 12.8597C34.7461 12.6124 33.0958 13.0927 32.2591 14.2919C30.4392 16.9005 33.2549 21.9637 34.6081 24.3969C34.8563 24.8429 35.0704 25.2283 35.1377 25.392C35.5784 26.4629 36.1489 27.1778 36.5655 27.6997C36.6931 27.8596 36.8171 28.0147 36.9113 28.1501C36.1763 28.3626 34.8563 28.8533 34.9765 31.3068C34.8796 32.5381 34.1896 38.3019 33.8391 40.3383C33.3764 43.0285 32.3891 44.0307 29.6128 44.6276ZM41.6269 30.842C40.8755 31.1919 39.6179 31.4543 38.4231 31.5105C37.1035 31.5724 36.4319 31.3623 36.274 31.2331C36.1996 29.7042 36.7673 29.5444 37.368 29.3752C37.4623 29.3486 37.5544 29.3227 37.6433 29.2916C37.6985 29.3367 37.759 29.3814 37.8253 29.4252C38.8858 30.1271 40.7775 30.2029 43.448 29.6502C43.4579 29.6481 43.4677 29.6462 43.4774 29.6442C43.1172 29.9819 42.5008 30.4351 41.6269 30.842Z" fill="white"/>
</g>
<defs>
<clipPath id="clip0_4437_8738">
<rect width="45.1171" height="46.5724" fill="white" transform="translate(1.44141 0.713776)"/>
</clipPath>
</defs>
</svg>

<svg xmlns="http://www.w3.org/2000/svg" width="48" height="48" fill="none" viewBox="0 0 48 48"><g clip-path="url(#a)"><path fill="#2d3748" d="M46.374 28.612c-.27-.823-.98-1.395-1.898-1.533-.432-.065-.927-.037-1.514.084-1.021.212-1.78.292-2.332.308 2.087-3.535 3.786-7.567 4.763-11.361 1.58-6.136.736-8.931-.251-10.195C42.53 2.568 38.719.77 34.122.715c-2.453-.03-4.606.456-5.73.805a21 21 0 0 0-3.35-.308c-2.21-.035-4.165.448-5.835 1.442a26.6 26.6 0 0 0-4.12-1.037c-4.03-.664-7.278-.147-9.653 1.536C2.557 5.19 1.224 8.73 1.47 13.673c.079 1.57.954 6.346 2.333 10.875.793 2.604 1.638 4.766 2.512 6.426 1.24 2.356 2.566 3.743 4.055 4.24.834.28 2.35.475 3.946-.857.202.245.471.49.83.716a5.5 5.5 0 0 0 1.565.661c2 .502 3.875.376 5.473-.327.01.286.018.558.024.793.01.382.021.756.035 1.106.095 2.365.255 4.205.731 5.492.026.07.061.178.098.293.238.728.634 1.947 1.644 2.903 1.045.989 2.31 1.292 3.467 1.292.58 0 1.135-.076 1.62-.18 1.733-.373 3.7-.94 5.124-2.972 1.346-1.92 2-4.814 2.118-9.373l.043-.37.028-.24.317.028.082.005c1.764.081 3.922-.294 5.247-.911 1.047-.488 4.402-2.263 3.612-4.661"/><path fill="#417ba2" d="M43.357 29.078c-5.246 1.085-5.607-.696-5.607-.696 5.54-8.242 7.855-18.703 5.857-21.263C38.155.135 28.718 3.438 28.56 3.524l-.05.009a18.7 18.7 0 0 0-3.5-.366c-2.375-.039-4.175.624-5.542 1.663 0 0-16.834-6.954-16.051 8.746.166 3.34 4.774 25.271 10.27 18.647 2.008-2.422 3.95-4.47 3.95-4.47.963.642 2.117.97 3.327.852l.094-.08c-.03.3-.016.594.038.943-1.416 1.586-1 1.864-3.83 2.448-2.864.592-1.182 1.646-.083 1.921 1.331.334 4.412.807 6.494-2.115l-.083.334c.555.445.944 2.898.879 5.12-.066 2.224-.11 3.75.328 4.942.437 1.192.873 3.875 4.593 3.075 3.11-.668 4.72-2.399 4.944-5.286.16-2.053.52-1.75.542-3.585l.289-.87c.333-2.782.053-3.68 1.968-3.262l.466.04c1.41.065 3.255-.227 4.337-.731 2.332-1.085 3.715-2.897 1.416-2.421"/><path fill="#fff" d="M20.453 15.07c-.473-.067-.9-.006-1.117.159a.4.4 0 0 0-.17.273c-.027.195.11.411.194.523.237.315.584.532.927.58q.075.01.148.01c.572 0 1.092-.447 1.138-.777.058-.413-.54-.688-1.12-.769m15.657.014c-.046-.324-.62-.416-1.166-.34-.544.076-1.072.323-1.028.647.036.252.49.683 1.028.683a1 1 0 0 0 .137-.01c.359-.05.622-.278.747-.41.191-.2.301-.424.281-.57"/><path fill="#fff" d="M45.099 28.954c-.2-.607-.844-.802-1.914-.58-3.176.657-4.314.202-4.687-.074 2.469-3.771 4.5-8.33 5.595-12.583.52-2.015.806-3.886.83-5.41.025-1.675-.259-2.905-.845-3.656-2.364-3.03-5.834-4.654-10.035-4.699-2.887-.032-5.327.709-5.8.917-.996-.248-2.082-.4-3.264-.42-2.168-.035-4.041.485-5.593 1.546A25 25 0 0 0 14.841 2.8c-3.682-.594-6.607-.144-8.695 1.34-2.492 1.769-3.642 4.933-3.42 9.402.076 1.504.93 6.13 2.279 10.56 1.775 5.83 3.704 9.131 5.734 9.81.238.08.512.135.814.135.74 0 1.649-.335 2.593-1.473a94 94 0 0 1 3.575-4.056c.798.43 1.674.67 2.571.694l.006.07c-.18.214-.327.402-.453.562-.621.79-.75.955-2.75 1.368-.57.118-2.08.43-2.103 1.492-.024 1.16 1.786 1.648 1.992 1.7q1.08.27 2.072.269c1.606 0 3.019-.53 4.148-1.553-.035 4.136.137 8.212.633 9.454.405 1.017 1.396 3.501 4.527 3.501.46 0 .965-.053 1.521-.173 3.268-.702 4.686-2.15 5.235-5.342.294-1.706.798-5.78 1.035-7.965.5.156 1.144.228 1.84.228 1.453 0 3.129-.31 4.18-.799 1.18-.55 3.31-1.898 2.924-3.07m-7.78-14.766c-.012.645-.1 1.23-.194 1.842-.101.657-.206 1.337-.232 2.162-.026.803.074 1.638.171 2.445.196 1.631.396 3.31-.38 4.967a7 7 0 0 1-.344-.71c-.097-.234-.307-.61-.597-1.132-1.128-2.03-3.772-6.783-2.419-8.723.404-.577 1.426-1.17 3.994-.851m-3.113-10.93c3.763.084 6.74 1.496 8.848 4.196 1.616 2.072-.164 11.497-5.317 19.629l-.156-.198-.066-.082c1.332-2.205 1.072-4.387.84-6.321-.095-.794-.185-1.544-.162-2.248.023-.747.122-1.387.217-2.006.117-.763.236-1.552.203-2.483a1 1 0 0 0 .022-.35c-.084-.892-1.1-3.563-3.171-5.98-1.133-1.322-2.785-2.802-5.04-3.8a17 17 0 0 1 3.782-.356M13.146 31.74c-1.04 1.255-1.759 1.014-1.995.936-1.54-.516-3.327-3.78-4.903-8.955-1.363-4.478-2.16-8.981-2.223-10.244-.199-3.994.767-6.777 2.87-8.273 3.423-2.434 9.05-.977 11.312-.238l-.099.095c-3.71 3.758-3.622 10.178-3.613 10.57 0 .152.012.366.03.66.063 1.08.182 3.09-.135 5.366-.295 2.115.355 4.185 1.783 5.68q.223.232.462.436a96 96 0 0 0-3.488 3.967m3.966-5.305c-1.151-1.205-1.674-2.88-1.435-4.597.336-2.404.212-4.498.145-5.623l-.022-.404c.542-.482 3.054-1.832 4.846-1.42.817.187 1.315.745 1.523 1.706 1.072 4.97.142 7.042-.606 8.707-.154.343-.3.668-.424 1.003l-.096.26c-.244.655-.47 1.264-.611 1.843-1.224-.004-2.415-.528-3.32-1.475m.188 6.704a2.9 2.9 0 0 1-.867-.374c.157-.075.437-.176.924-.276 2.352-.486 2.716-.828 3.51-1.839.181-.231.387-.494.673-.813.425-.478.62-.398.973-.25.286.118.564.477.677.873.054.186.114.541-.083.817-1.657 2.327-4.072 2.297-5.807 1.862m12.313 11.489c-2.878.618-3.897-.855-4.57-2.538-.433-1.087-.645-5.988-.494-11.4a.6.6 0 0 0-.029-.207 3 3 0 0 0-.08-.382c-.225-.787-.772-1.446-1.43-1.72-.26-.108-.74-.307-1.315-.159.122-.507.335-1.08.566-1.7l.097-.261c.11-.295.246-.6.39-.922.783-1.742 1.854-4.128.691-9.518-.435-2.019-1.89-3.005-4.093-2.776-1.322.137-2.53.672-3.133.979q-.194.098-.36.191c.169-2.034.805-5.836 3.183-8.24 1.498-1.515 3.492-2.263 5.922-2.223 4.788.08 7.858 2.543 9.59 4.596 1.493 1.769 2.302 3.55 2.624 4.512-2.426-.248-4.076.233-4.913 1.432-1.82 2.609.996 7.672 2.35 10.105.247.446.461.831.529.995.44 1.07 1.01 1.786 1.428 2.308.127.16.251.315.345.45-.735.213-2.055.703-1.934 3.157-.097 1.231-.787 6.995-1.138 9.031-.463 2.69-1.45 3.693-4.226 4.29m12.014-13.786c-.751.35-2.01.612-3.204.669-1.32.061-1.991-.149-2.149-.278-.074-1.529.493-1.689 1.094-1.858q.141-.038.275-.083.084.068.182.133c1.06.702 2.953.778 5.623.225l.03-.006c-.36.338-.977.791-1.851 1.198"/></g><defs><clipPath id="a"><path fill="#fff" d="M1.441.714h45.117v46.572H1.441z"/></clipPath></defs></svg>
